X:3
T:Polka CGF 5- 
M:2/4
L:1/16
K:Cmaj
EG |: "C"A2G2 EGce | "G7"f2f2 B2GB | TA2G2 DGBd | "C"e2e2 c2EG | TA2G2 EGce | "G7"f2f2 B2GB | 
AGBd gfed |1 "C"c2e2 c2EG :|2 "C"c2e2 c2de |: [K:Gmaj] "D7"d2AB cFF2 | "G"G2g2 gfed | "D7"f2f2 e3c | "G"e2e2 d2de | 
"D7"d2AB cFF2 | "G"G2g2 agfe | dgde "D7"dcBA |1 "G"G2B2 G2de :|2 "G"G2B2 G2EG |: [K:Fmaj] "F"AAA2 c3A | 
d2A2 c4 | c2g2 g2f2 | "C7"f2e2 e4 | BBB2 d3B | e2B2 d4 | c2d2 c2B2 | "F"BBA2 A4 | AAA2 c3A | 
d2A2 c4 | Acfa g2f2 | "Bb"e2d2 d4 | B2d2 B2cB | "F"A2c2 A2cd | "C7"c2B2 d3e | "F"f2a2 f2 z2 :| 

